client/src/assets/CartIcon.svg

<svg width="24" height="24" viewBox="0 0 24 24" fill="none" xmlns="http://www.w3.org/2000/svg">
<path d="M19 6H17C17 3.24 14.76 1 12 1C9.24 1 7 3.24 7 6H5C3.9 6 3 6.9 3 8V20C3 21.1 3.9 22 5 22H19C20.1 22 21 21.1 21 20V8C21 6.9 20.1 6 19 6ZM12 3C13.66 3 15 4.34 15 6H9C9 4.34 10.34 3 12 3ZM19 20H5V8H19V20ZM12 12C10.34 12 9 10.66 9 9H7C7 11.76 9.24 14 12 14C14.76 14 17 11.76 17 9H15C15 10.66 13.66 12 12 12Z" fill="#282424"/>
</svg>

<?xml version="1.0" encoding="utf-8"?>
<!-- Generator: Adobe Illustrator 25.2.3, SVG Export Plug-In . SVG Version: 6.00 Build 0)  -->
<svg version="1.1" id="Layer_1" xmlns="http://www.w3.org/2000/svg" xmlns:xlink="http://www.w3.org/1999/xlink" x="0px" y="0px"
	 viewBox="0 0 24 24" style="enable-background:new 0 0 24 24;" xml:space="preserve">
<style type="text/css">
	.st0{fill:#FBBC05;}
</style>
<path class="st0" d="M19,6h-2c0-2.8-2.2-5-5-5S7,3.2,7,6H5C3.9,6,3,6.9,3,8v12c0,1.1,0.9,2,2,2h14c1.1,0,2-0.9,2-2V8
	C21,6.9,20.1,6,19,6z M12,3c1.7,0,3,1.3,3,3H9C9,4.3,10.3,3,12,3z M19,20H5V8h14V20z M12,12c-1.7,0-3-1.3-3-3H7c0,2.8,2.2,5,5,5
	s5-2.2,5-5h-2C15,10.7,13.7,12,12,12z"/>
</svg>
